public_html/images/ico/facebook.svg

<svg xmlns="http://www.w3.org/2000/svg" width="409" height="409" viewBox="0 0 409 409" xmlns:xlink="http://www.w3.org/1999/xlink"><defs><path id="a" d="M0 408.94V.212h408.785V408.94z"/></defs><g fill="none" fill-rule="evenodd"><mask id="b" fill="#fff"><use xlink:href="#a"/></mask><path fill="#435181" d="M353.699.212H55.085C24.663.212 0 24.874 0 55.297v298.616c0 30.423 24.662 55.085 55.085 55.085H202.36l.251-146.078H164.66a8.954 8.954 0 0 1-8.954-8.92l-.182-47.087a8.955 8.955 0 0 1 8.955-8.989h37.882v-45.498c0-52.8 32.247-81.55 79.348-81.55h38.65a8.955 8.955 0 0 1 8.955 8.955v39.704a8.955 8.955 0 0 1-8.95 8.955l-23.719.011c-25.615 0-30.575 12.172-30.575 30.035v39.389h56.285c5.363 0 9.524 4.683 8.892 10.009l-5.581 47.087a8.955 8.955 0 0 1-8.892 7.901h-50.453L266.07 409h87.631c30.422 0 55.084-24.662 55.084-55.084V55.297C408.784 24.874 384.122.212 353.699.212" mask="url(#b)"/></g></svg>

<svg xmlns="http://www.w3.org/2000/svg" width="409" height="409" viewBox="0 0 409 409" xmlns:xlink="http://www.w3.org/1999/xlink">
  <defs>
    <polygon id="a" points="0 408.94 0 .212 408.785 .212 408.785 408.94"/>
  </defs>
  <g fill="none" fill-rule="evenodd">
    <mask id="b" fill="white">
      <use xlink:href="#a"/>
    </mask>
    <path fill="#435181" d="M353.699,0.212 L55.085,0.212 C24.663,0.212 0,24.874 0,55.297 L0,353.913 C0,384.336 24.662,408.998 55.085,408.998 L202.36,408.998 L202.611,262.92 L164.66,262.92 C159.728,262.92 155.725,258.932 155.706,254 L155.524,206.913 C155.505,201.954 159.52,197.924 164.479,197.924 L202.361,197.924 L202.361,152.426 C202.361,99.626 234.608,70.876 281.709,70.876 L320.359,70.876 C325.304,70.876 329.314,74.885 329.314,79.831 L329.314,119.535 C329.314,124.479 325.307,128.487 320.364,128.49 L296.645,128.501 C271.03,128.501 266.07,140.673 266.07,158.536 L266.07,197.925 L322.355,197.925 C327.718,197.925 331.879,202.608 331.247,207.934 L325.666,255.021 C325.132,259.527 321.311,262.922 316.774,262.922 L266.321,262.922 L266.07,409 L353.701,409 C384.123,409 408.785,384.338 408.785,353.916 L408.785,55.297 C408.784,24.874 384.122,0.212 353.699,0.212" mask="url(#b)"/>
  </g>
</svg>
